assets/layers/maproulette/logomark.svg

<svg xmlns="http://www.w3.org/2000/svg" viewBox="0 0 40 40" fill="currentColor">
<g transform="translate(10 10)">
      <polygon points="16 1 18 7 14 7" transform="rotate(45 16 4)" />
      <polygon points="4 13 6 19 2 19" transform="rotate(-135 4 16)" />
      <path d="M10,16 C6.68629149,16 4,13.3137085 4,10 C4,6.68629149 6.68629149,4 10,4 C13.3137085,4 16,6.68629149 16,10 C16,13.3137085 13.3137085,16 10,16 Z M9.99999996,14.6666666 C12.5773288,14.6666666 14.6666666,12.5773288 14.6666666,9.99999998 C14.6666666,7.42267116 12.5773288,5.33333333 9.99999996,5.33333333 C7.42267116,5.33333333 5.33333333,7.42267116 5.33333333,9.99999998 C5.33333333,12.5773288 7.42267116,14.6666666 9.99999996,14.6666666 Z" />
    </g>
  <path d="M19.8753324,0 C8.91610519,0 0,8.91610519 0,19.8753324 C0,30.8345597 8.91610519,39.7506649 19.8753324,39.7506649 C30.8345597,39.7506649 39.7506649,30.8345597 39.7506649,19.8753324 C39.7506649,8.91610519 30.8345597,0 19.8753324,0 Z M19.8753324,38.4256169 C9.64683421,38.4256169 1.32504804,30.1038307 1.32504804,19.8753324 C1.32504804,9.64683421 9.64683421,1.32504804 19.8753324,1.32504804 C30.1038307,1.32504804 38.4256169,9.64683421 38.4256169,19.8753324 C38.4256169,30.1038307 30.1038307,38.4256169 19.8753324,38.4256169 Z" />
    <path d="M36.4380836,20.5378176 C36.8044574,20.5378176 37.1005688,20.2410075 37.1005688,19.8753324 C37.1005688,19.5096574 36.8044574,19.2128472 36.4380836,19.2128472 L34.4340135,19.2128472 C34.3955826,18.3701642 34.2842497,17.5466578 34.1087102,16.7469862 L36.0452352,16.2282089 C36.3983329,16.1341117 36.6083438,15.7703776 36.5136254,15.4172799 C36.4195281,15.0628623 36.055794,14.8541713 35.7026963,14.948191 L33.7674911,15.4669682 C33.51377,14.6693152 33.1918052,13.902795 32.8101367,13.1713673 L34.549927,12.1669643 C34.8672336,11.9841267 34.9759268,11.5793221 34.7930893,11.2620155 C34.6089319,10.9447089 34.2034286,10.8367145 33.8874418,11.019552 L32.1457105,12.0245761 C31.696497,11.32498 31.1923933,10.6644357 30.6331667,10.0529587 L32.0549517,8.63117367 C32.313331,8.37279435 32.313331,7.95339378 32.0549517,7.69439335 C31.7958736,7.43601403 31.3765507,7.43601403 31.1181714,7.69439335 L29.6963864,9.11617836 C29.0849093,8.55765046 28.4236663,8.05284808 27.7240702,7.60363451 L28.7290943,5.86252433 C28.9126306,5.54583886 28.8039374,5.14041313 28.4866308,4.95687686 C28.1706441,4.77403933 27.7645196,4.88265491 27.5816044,5.20003913 L26.5772014,6.93913072 C25.8457736,6.55816097 25.0792535,6.23619611 24.2816005,5.98247507 L24.8009988,4.04858969 C24.8957172,3.69479325 24.6864051,3.33175788 24.3326087,3.2370395 C23.9808308,3.14294222 23.6157768,3.35233195 23.5210585,3.70480855 L23.0016601,5.64133362 C22.2019886,5.46579406 21.3791808,5.35515989 20.5357991,5.31672907 L20.5364978,3.31265893 C20.5364978,2.94698386 20.2403864,2.65017372 19.8740126,2.65017372 C19.5083375,2.65017372 19.2115274,2.94698386 19.2115274,3.31265893 L19.2109063,5.31672907 C18.3688444,5.35515989 17.5453379,5.4664928 16.7456663,5.64203236 L16.2268891,3.70550729 C16.1321707,3.35240959 15.7697565,3.14170001 15.41596,3.23711713 C15.0621636,3.33121441 14.8521527,3.69494852 14.9475698,4.04804623 L15.4656483,5.98387255 C14.6679953,6.23759359 13.9014752,6.55955845 13.1700474,6.9405282 L12.1663432,5.20073787 C11.9835056,4.88343129 11.578701,4.77473807 11.2620155,4.9575756 C10.9447089,5.14041313 10.8360157,5.54591649 11.0188533,5.86260197 L12.0238774,7.60503199 C11.3242812,8.05486666 10.663737,8.55904795 10.0522599,9.11819695 L8.63117367,7.69579083 C8.37217324,7.43671277 7.95277267,7.43741151 7.69369461,7.69509209 C7.43531529,7.95409252 7.43531529,8.37349309 7.69369461,8.63257115 L9.11478088,10.0549773 C8.55695172,10.6664543 8.0520717,11.3276973 7.60355687,12.0272935 L5.86182559,11.0202507 C5.54514011,10.8367145 5.13971439,10.9454077 4.95679922,11.2627143 C4.77396169,11.5793997 4.88195617,11.9842044 5.19864164,12.1677406 L6.93905308,13.1734635 C6.55808333,13.9048913 6.23611847,14.6714114 5.98239743,15.4690644 L4.04719221,14.9483462 C3.69541435,14.8549477 3.3309815,15.0629399 3.23564201,15.4167364 C3.14092363,15.7698341 3.35023573,16.1335682 3.70341107,16.2282866 L5.64125598,16.7490048 C5.46571642,17.5486763 5.35508225,18.3714841 5.31665143,19.2142447 L3.31188254,19.2129249 L3.31126144,19.2129249 C2.94558638,19.2129249 2.64939734,19.5090363 2.64877624,19.874789 C2.64877624,20.2411628 2.94488764,20.5379729 3.31064034,20.5379729 L5.31672907,20.5392928 C5.35515989,21.3819758 5.4664928,22.2054823 5.64203236,23.0051538 L3.70488619,23.5219125 C3.35108974,23.6166309 3.14107891,23.9797439 3.23517618,24.3334627 C3.31467751,24.6295741 3.58229576,24.8250666 3.87514636,24.8250666 C3.93213267,24.8250666 3.98911897,24.8177686 4.04610528,24.8025516 L5.98395019,24.2850942 C6.23767123,25.0821261 6.55963609,25.8486462 6.94060584,26.580074 L5.2001944,27.5824584 C4.88288783,27.765296 4.7741946,28.1707993 4.95641103,28.4874072 C5.07900146,28.7000577 5.30158965,28.8193097 5.53147582,28.8193097 C5.64342984,28.8193097 5.75670371,28.7908165 5.8614374,28.7311905 L7.60518727,27.7261664 C8.05440084,28.4257626 8.55850448,29.0863068 9.11773112,29.6977839 L7.69462626,31.1181714 C7.4355482,31.3765507 7.4349271,31.7959513 7.69330642,32.0549517 C7.82319482,32.1848401 7.99275625,32.2497455 8.16239532,32.2497455 C8.33203439,32.2497455 8.50159582,32.1854612 8.63078548,32.0562715 L10.0545114,30.6351853 C10.6659885,31.1930144 11.3265327,31.6978168 12.0261289,32.1464093 L11.0190862,33.8875195 C10.8362486,34.2042049 10.9442431,34.6090096 11.2615497,34.7924682 C11.3655846,34.8527929 11.4794796,34.8812084 11.5921324,34.8812084 C11.8206987,34.8812084 12.0432869,34.7632763 12.1664984,34.5506258 L13.1722213,32.8108354 C13.9036491,33.1918052 14.6701692,33.51377 15.4678222,33.7674911 L14.9477251,35.7013765 C14.852308,36.0551729 15.0616977,36.4182083 15.4154942,36.5136254 C15.4724805,36.5288424 15.5307866,36.5361404 15.5877729,36.5361404 C15.8799248,36.5361404 16.1476207,36.3413466 16.227122,36.0458563 L16.7478402,34.1087102 C17.5475118,34.2849485 18.3710182,34.3955826 19.2130802,34.4340135 L19.2117603,36.4374625 C19.2117603,36.8038363 19.5078717,37.1006464 19.8736244,37.1006464 L19.8742455,37.1006464 C20.2399206,37.1006464 20.5367307,36.804535 20.5367307,36.4387823 L20.5380506,34.4340135 C21.3801125,34.3955826 22.2042401,34.2849485 23.0039116,34.1087102 L23.5212914,36.0452352 C23.6001716,36.3413466 23.8677899,36.5368392 24.1606405,36.5368392 C24.2176268,36.5368392 24.2752342,36.5295412 24.3322205,36.5143241 C24.6860169,36.4196058 24.895329,36.0564928 24.8013094,35.7027739 L24.283852,33.7675687 C25.0808839,33.5138477 25.8480251,33.1918828 26.5787541,32.8109131 L27.5817597,34.5507034 C27.7036514,34.7633539 27.9269383,34.8819848 28.1561257,34.8819848 C28.2680798,34.8819848 28.3820524,34.8534917 28.4860873,34.7938657 C28.8033939,34.6110281 28.9127082,34.2055248 28.7292496,33.8888393 L27.7255453,32.1464093 C28.4245204,31.6971957 29.0856857,31.1930921 29.6971627,30.6338654 L31.1169292,32.0556504 C31.2461188,32.1855388 31.416379,32.2504442 31.5860181,32.2504442 C31.7556571,32.2504442 31.9245975,32.1855388 32.0544082,32.0563492 C32.3127876,31.7979699 32.3127876,31.3785693 32.055107,31.1195689 L30.6340207,29.6971627 C31.1931697,29.0856857 31.697351,28.4251415 32.1465646,27.7255453 L33.8856561,28.7312682 C33.9910109,28.7915929 34.1049835,28.8200084 34.2169376,28.8200084 C34.4462026,28.8200084 34.6687908,28.7014552 34.7913036,28.488727 C34.9748399,28.1720415 34.8661467,27.7672369 34.5494612,27.5837006 L32.8110683,26.5786765 C33.1920381,25.8472487 33.514003,25.0801075 33.767724,24.2830756 L35.7009106,24.8024739 C35.758518,24.8183897 35.8168242,24.8256877 35.8731894,24.8256877 C36.1653413,24.8256877 36.4330371,24.6308939 36.5125385,24.3347825 C36.6079556,23.9816848 36.3979448,23.6179507 36.0447694,23.5232323 L34.1089431,23.0031353 C34.2851814,22.2034637 34.3958156,21.3799572 34.4342464,20.5378953 L36.4380836,20.5378953 L36.4380836,20.5378176 Z M19.8753324,33.12558 C12.5691292,33.12558 6.62508494,27.1815357 6.62508494,19.8753324 C6.62508494,12.5691292 12.5691292,6.62508494 19.8753324,6.62508494 C27.1815357,6.62508494 33.12558,12.5691292 33.12558,19.8753324 C33.12558,27.1815357 27.1815357,33.12558 19.8753324,33.12558 Z" />

</svg>

<?xml version="1.0" encoding="UTF-8" standalone="no"?>
<svg
   xmlns:dc="http://purl.org/dc/elements/1.1/"
   xmlns:cc="http://creativecommons.org/ns#"
   xmlns:rdf="http://www.w3.org/1999/02/22-rdf-syntax-ns#"
   xmlns:svg="http://www.w3.org/2000/svg"
   xmlns="http://www.w3.org/2000/svg"
   xmlns:sodipodi="http://sodipodi.sourceforge.net/DTD/sodipodi-0.dtd"
   xmlns:inkscape="http://www.inkscape.org/namespaces/inkscape"
   viewBox="0 0 500 500"
   fill="currentColor"
   version="1.1"
   id="svg865"
   sodipodi:docname="logomark.svg"
   width="500"
   height="500"
   inkscape:version="1.0.1 (3bc2e813f5, 2020-09-07)">
  <metadata
     id="metadata871">
    <rdf:RDF>
      <cc:Work
         rdf:about="">
        <dc:format>image/svg+xml</dc:format>
        <dc:type
           rdf:resource="http://purl.org/dc/dcmitype/StillImage" />
        <dc:title></dc:title>
      </cc:Work>
    </rdf:RDF>
  </metadata>
  <defs
     id="defs869" />
  <sodipodi:namedview
     pagecolor="#ffffff"
     bordercolor="#666666"
     borderopacity="1"
     objecttolerance="10"
     gridtolerance="10"
     guidetolerance="10"
     inkscape:pageopacity="0"
     inkscape:pageshadow="2"
     inkscape:window-width="3840"
     inkscape:window-height="2066"
     id="namedview867"
     showgrid="false"
     inkscape:zoom="0.99657862"
     inkscape:cx="-127.66443"
     inkscape:cy="364.91286"
     inkscape:window-x="2149"
     inkscape:window-y="-11"
     inkscape:window-maximized="1"
     inkscape:current-layer="svg865" />
  <g
     id="g879"
     transform="scale(12.578406)">
    <g
       transform="translate(10,10)"
       id="g859">
      <polygon
         points="16,1 18,7 14,7 "
         transform="rotate(45,16,4)"
         id="polygon853" />
      <polygon
         points="4,13 6,19 2,19 "
         transform="rotate(-135,4,16)"
         id="polygon855" />
      <path
         d="M 10,16 C 6.6862915,16 4,13.313709 4,10 4,6.6862915 6.6862915,4 10,4 c 3.313709,0 6,2.6862915 6,6 0,3.313709 -2.686291,6 -6,6 z m 0,-1.333333 c 2.577329,0 4.666667,-2.089338 4.666667,-4.666667 0,-2.5773288 -2.089338,-4.6666667 -4.666667,-4.6666667 -2.5773288,0 -4.6666667,2.0893379 -4.6666667,4.6666667 0,2.577329 2.0893379,4.666667 4.6666667,4.666667 z"
         id="path857" />
    </g>
    <path
       d="M 19.875332,0 C 8.9161052,0 0,8.9161052 0,19.875332 0,30.83456 8.9161052,39.750665 19.875332,39.750665 c 10.959228,0 19.875333,-8.916105 19.875333,-19.875333 C 39.750665,8.9161052 30.83456,0 19.875332,0 Z m 0,38.425617 c -10.2284978,0 -18.550284,-8.321786 -18.550284,-18.550285 0,-10.2284978 8.3217862,-18.550284 18.550284,-18.550284 10.228499,0 18.550285,8.3217862 18.550285,18.550284 0,10.228499 -8.321786,18.550285 -18.550285,18.550285 z"
       id="path861" />
    <path
       d="m 36.438084,20.537818 c 0.366373,0 0.662485,-0.296811 0.662485,-0.662486 0,-0.365675 -0.296112,-0.662485 -0.662485,-0.662485 H 34.434013 C 34.395583,18.370164 34.28425,17.546658 34.10871,16.746986 l 1.936525,-0.518777 c 0.353098,-0.0941 0.563109,-0.457831 0.46839,-0.810929 -0.0941,-0.354418 -0.457831,-0.563109 -0.810929,-0.469089 l -1.935205,0.518777 C 33.51377,14.669315 33.191805,13.902795 32.810137,13.171367 l 1.73979,-1.004403 c 0.317307,-0.182837 0.426,-0.587642 0.243162,-0.904948 -0.184157,-0.317307 -0.58966,-0.425302 -0.905647,-0.242464 l -1.741732,1.005024 c -0.449213,-0.699596 -0.953317,-1.36014 -1.512543,-1.971617 l 1.421785,-1.4217853 c 0.258379,-0.2583793 0.258379,-0.6777799 0,-0.9367803 -0.259078,-0.2583794 -0.678401,-0.2583794 -0.936781,0 l -1.421785,1.421785 C 29.084909,8.5576505 28.423666,8.0528481 27.72407,7.6036345 L 28.729094,5.8625243 C 28.912631,5.5458389 28.803937,5.1404131 28.486631,4.9568769 28.170644,4.7740393 27.76452,4.8826549 27.581604,5.2000391 L 26.577201,6.9391307 C 25.845774,6.558161 25.079253,6.2361961 24.2816,5.9824751 L 24.800999,4.0485897 C 24.895717,3.6947933 24.686405,3.3317579 24.332609,3.2370395 23.980831,3.1429422 23.615777,3.352332 23.521058,3.7048086 L 23.00166,5.6413336 C 22.201989,5.4657941 21.379181,5.3551599 20.535799,5.3167291 l 6.99e-4,-2.0040702 c 0,-0.365675 -0.296112,-0.6624852 -0.662485,-0.6624852 -0.365676,0 -0.662486,0.2968102 -0.662486,0.6624852 l -6.21e-4,2.0040702 c -0.842062,0.038431 -1.665568,0.1497637 -2.46524,0.3253033 L 16.226889,3.7055073 C 16.132171,3.3524096 15.769757,3.1417 15.41596,3.2371171 15.062164,3.3312144 14.852153,3.6949485 14.94757,4.0480462 l 0.518078,1.9358263 C 14.667995,6.2375936 13.901475,6.5595584 13.170047,6.9405282 L 12.166343,5.2007379 C 11.983506,4.8834313 11.578701,4.7747381 11.262016,4.9575756 c -0.317307,0.1828375 -0.426,0.5883409 -0.243163,0.9050264 l 1.005024,1.74243 C 11.324281,8.0548667 10.663737,8.559048 10.05226,9.118197 L 8.6311737,7.6957908 C 8.3721732,7.4367128 7.9527727,7.4374115 7.6936946,7.6950921 c -0.2583793,0.2590004 -0.2583793,0.678401 0,0.9374791 l 1.4210863,1.4224058 c -0.5578292,0.611477 -1.0627092,1.27272 -1.511224,1.972317 L 5.8618256,11.020251 c -0.3166855,-0.183537 -0.7221112,-0.07484 -0.9050264,0.242463 -0.1828375,0.316686 -0.074843,0.72149 0.2418424,0.905027 l 1.7404115,1.005723 c -0.3809698,0.731427 -0.7029346,1.497947 -0.9566557,2.2956 L 4.0471922,14.948346 c -0.3517778,-0.0934 -0.7162107,0.114594 -0.8115502,0.46839 -0.094718,0.353098 0.1145937,0.716832 0.4677691,0.811551 l 1.9378449,0.520718 c -0.1755396,0.799671 -0.2861738,1.622479 -0.3246046,2.46524 l -2.0047689,-0.0013 h -6.211e-4 c -0.365675,0 -0.6618641,0.296111 -0.6624852,0.661864 0,0.366374 0.2961114,0.663184 0.6618641,0.663184 l 2.0060888,0.0013 c 0.038431,0.842683 0.1497637,1.666189 0.3253033,2.465861 l -1.9371462,0.516758 c -0.3537965,0.09472 -0.5638073,0.457832 -0.46971,0.811551 0.079501,0.296111 0.3471196,0.491604 0.6399702,0.491604 0.056986,0 0.1139726,-0.0073 0.1709589,-0.02252 l 1.9378449,-0.517458 c 0.253721,0.797032 0.5756859,1.563552 0.9566556,2.29498 l -1.7404114,1.002384 c -0.3173066,0.182838 -0.4259998,0.588341 -0.2437834,0.904949 0.1225905,0.212651 0.3451787,0.331903 0.5750648,0.331903 0.111954,0 0.2252279,-0.02849 0.3299616,-0.08812 l 1.7437499,-1.005024 c 0.4492135,0.699597 0.9533172,1.360141 1.5125438,1.971618 l -1.4231048,1.420387 c -0.2590781,0.25838 -0.2596992,0.67778 -0.00132,0.936781 0.1298884,0.129888 0.2994498,0.194794 0.4690889,0.194794 0.1696391,0 0.3392005,-0.06429 0.4683902,-0.193475 L 10.054511,30.63518 c 0.611477,0.557829 1.272022,1.062632 1.971618,1.511224 l -1.007043,1.741111 c -0.182837,0.316685 -0.07484,0.72149 0.242464,0.904948 0.104035,0.06032 0.21793,0.08874 0.330582,0.08874 0.228567,0 0.451155,-0.117932 0.574366,-0.330582 l 1.005723,-1.739791 c 0.731428,0.38097 1.497948,0.702935 2.295601,0.956656 l -0.520097,1.933886 c -0.09542,0.353796 0.113973,0.716831 0.467769,0.812248 0.05699,0.01522 0.115293,0.02252 0.172279,0.02252 0.292152,0 0.559848,-0.194793 0.639349,-0.490284 L 16.74784,34.10871 c 0.799672,0.176238 1.623178,0.286873 2.46524,0.325303 l -0.0013,2.00345 c 0,0.366373 0.296112,0.663183 0.661864,0.663183 h 6.21e-4 c 0.365676,0 0.662486,-0.296111 0.662486,-0.661864 l 0.0013,-2.004769 c 0.842061,-0.03843 1.666189,-0.149065 2.465861,-0.325303 l 0.517379,1.936525 c 0.07888,0.296112 0.346499,0.491604 0.639349,0.491604 0.05699,0 0.114594,-0.0073 0.17158,-0.02251 0.353797,-0.09472 0.563109,-0.457831 0.469089,-0.81155 l -0.517457,-1.935205 c 0.797032,-0.253721 1.564173,-0.575686 2.294902,-0.956656 l 1.003006,1.73979 c 0.121891,0.212651 0.345178,0.331282 0.574366,0.331282 0.111954,0 0.225926,-0.02849 0.329961,-0.08812 0.317307,-0.182838 0.426621,-0.588341 0.243163,-0.905027 l -1.003705,-1.74243 c 0.698975,-0.449213 1.360141,-0.953317 1.971618,-1.512544 l 1.419766,1.421785 c 0.12919,0.129889 0.29945,0.194794 0.469089,0.194794 0.169639,0 0.338579,-0.06491 0.46839,-0.194095 0.25838,-0.258379 0.25838,-0.67778 6.99e-4,-0.93678 l -1.421086,-1.422406 c 0.559149,-0.611477 1.06333,-1.272022 1.512544,-1.971618 l 1.739091,1.005723 c 0.105355,0.06032 0.219328,0.08874 0.331282,0.08874 0.229265,0 0.451853,-0.118553 0.574366,-0.331281 0.183536,-0.316686 0.07484,-0.72149 -0.241843,-0.905026 L 32.811068,26.57868 c 0.38097,-0.731427 0.702935,-1.498569 0.956656,-2.2956 l 1.933187,0.519398 c 0.05761,0.01592 0.115913,0.02321 0.172278,0.02321 0.292152,0 0.559848,-0.194794 0.639349,-0.490906 0.09542,-0.353097 -0.114593,-0.716831 -0.467769,-0.81155 l -1.935826,-0.520097 c 0.176238,-0.799671 0.286873,-1.623178 0.325303,-2.46524 h 2.003838 z M 19.875332,33.12558 c -7.306203,0 -13.2502471,-5.944044 -13.2502471,-13.250248 0,-7.306203 5.9440441,-13.2502471 13.2502471,-13.2502471 7.306204,0 13.250248,5.9440441 13.250248,13.2502471 0,7.306204 -5.944044,13.250248 -13.250248,13.250248 z"
       id="path863" />
  </g>
</svg>
